src/lib/packages/icons/src/assets/filled/message-shield.svg

<svg width="24" height="24" viewBox="0 0 24 24" fill="none" xmlns="http://www.w3.org/2000/svg">
<path d="M18 3H6C4 3 3 4 3 6V21L6 18H18C20 18 21 17 21 15V6C21 4 20 3 18 3ZM15.5 10.0551C15.5 12.7221 13.312 14.055 12 14.499C10.688 14.055 8.5 12.7211 8.5 10.0551C8.5 9.58005 8.5 8.28801 8.5 7.83301C10.25 7.33101 11.1251 6.944 12.0071 6.5C12.8751 6.944 13.75 7.331 15.5 7.776C15.5 8.253 15.5 9.56505 15.5 10.0551Z" fill="currentColor"/>
</svg>

<svg xmlns="http://www.w3.org/2000/svg" width="24" height="24" fill="none"><path fill="currentColor" d="M18 3H6C4 3 3 4 3 6v15l3-3h12c2 0 3-1 3-3V6c0-2-1-3-3-3Zm-2.5 7.055c0 2.667-2.188 4-3.5 4.444-1.312-.444-3.5-1.778-3.5-4.444V7.833c1.75-.502 2.625-.889 3.507-1.333.868.444 1.743.831 3.493 1.276v2.28Z"/></svg>
